images/play.svg

<?xml version="1.0" ?><svg data-name="Layer 1" id="Layer_1" viewBox="0 0 100 100" xmlns="http://www.w3.org/2000/svg" fill='#ffffff'><title/><path d="M50,5A45,45,0,1,0,95,50,45.00058,45.00058,0,0,0,50,5Zm0,88A43.00024,43.00024,0,1,1,80.40552,80.40552,42.86137,42.86137,0,0,1,50,93Z"/><path d="M69.78345,47.76355,40.96753,29.40466a2.54663,2.54663,0,0,0-1.37195-.4046,2.5884,2.5884,0,0,0-1.81012.74756A2.64065,2.64065,0,0,0,37,31.64111V68.35889a2.64062,2.64062,0,0,0,.78546,1.89343,2.588,2.588,0,0,0,1.81012.74756,2.54663,2.54663,0,0,0,1.37195-.4046L69.78345,52.23645a2.66383,2.66383,0,0,0,0-4.4729Zm-1.07477,2.78619L39.89282,68.90857a.54048.54048,0,0,1-.29724.09131.591.591,0,0,1-.40777-.17353A.634.634,0,0,1,39,68.35889V31.64111a.63378.63378,0,0,1,.18781-.46746.59111.59111,0,0,1,.40777-.17359.54161.54161,0,0,1,.29724.09131L68.70874,49.45032a.66419.66419,0,0,1-.00006,1.09942Z"/></svg>

<svg xmlns="http://www.w3.org/2000/svg" fill="#fff" data-name="Layer 1" viewBox="0 0 100 100"><path d="M50 5a45 45 0 1 0 45 45A45 45 0 0 0 50 5Zm0 88a43 43 0 1 1 30.406-12.594A42.861 42.861 0 0 1 50 93Z"/><path d="m69.783 47.764-28.815-18.36A2.547 2.547 0 0 0 39.596 29a2.588 2.588 0 0 0-1.81.748A2.64 2.64 0 0 0 37 31.64V68.36a2.64 2.64 0 0 0 .785 1.893 2.588 2.588 0 0 0 1.81.748 2.547 2.547 0 0 0 1.373-.405l28.815-18.359a2.664 2.664 0 0 0 0-4.472ZM68.71 50.55 39.893 68.909a.54.54 0 0 1-.297.09.591.591 0 0 1-.408-.173.634.634 0 0 1-.188-.467V31.64a.634.634 0 0 1 .188-.467.591.591 0 0 1 .408-.174.542.542 0 0 1 .297.091l28.816 18.36a.664.664 0 0 1 0 1.099Z"/></svg>
